src/assets/icons/calendar-minus.svg

<svg width="14" height="14" viewBox="0 0 14 14" fill="none" xmlns="http://www.w3.org/2000/svg">
<g id="calendar-minus">
<path id="Vector" fill-rule="evenodd" clip-rule="evenodd" d="M5.29729 0.567568C5.29729 0.254109 5.04319 0 4.72973 0C4.41627 0 4.16216 0.254109 4.16216 0.567568V1.51351H3.21621C2.06686 1.51351 1.13513 2.44525 1.13513 3.59459V11.9189C1.13513 13.0683 2.06686 14 3.21621 14H10.7838C11.9331 14 12.8649 13.0683 12.8649 11.9189V3.59459C12.8649 2.44525 11.9331 1.51351 10.7838 1.51351H9.83783V0.567568C9.83783 0.254109 9.58372 0 9.27027 0C8.95681 0 8.7027 0.254109 8.7027 0.567568V1.51351H5.29729V0.567568ZM8.7027 3.59459V2.64865H5.29729V3.59459C5.29729 3.90805 5.04319 4.16216 4.72973 4.16216C4.41627 4.16216 4.16216 3.90805 4.16216 3.59459V2.64865H3.21621C2.69378 2.64865 2.27027 3.07216 2.27027 3.59459V5.67568H11.7297V3.59459C11.7297 3.07216 11.3062 2.64865 10.7838 2.64865H9.83783V3.59459C9.83783 3.90805 9.58372 4.16216 9.27027 4.16216C8.95681 4.16216 8.7027 3.90805 8.7027 3.59459ZM2.27027 11.9189V6.81081H11.7297V11.9189C11.7297 12.4414 11.3062 12.8649 10.7838 12.8649H3.21621C2.69378 12.8649 2.27027 12.4414 2.27027 11.9189ZM5.48648 9.49733C5.17302 9.49733 4.91892 9.75144 4.91892 10.0649C4.91892 10.3784 5.17302 10.6325 5.48648 10.6325H8.51351C8.82697 10.6325 9.08108 10.3784 9.08108 10.0649C9.08108 9.75144 8.82697 9.49733 8.51351 9.49733H5.48648Z" fill="black"/>
</g>
</svg>

<svg xmlns="http://www.w3.org/2000/svg" fill="none" viewBox="0 0 14 14"><path fill="#000" fill-rule="evenodd" d="M5.297.568a.568.568 0 1 0-1.135 0v.946h-.946c-1.15 0-2.08.931-2.08 2.08v8.325c0 1.15.93 2.081 2.08 2.081h7.568c1.15 0 2.08-.932 2.08-2.081V3.595c0-1.15-.93-2.081-2.08-2.081h-.946V.568a.568.568 0 1 0-1.135 0v.946H5.297zm3.406 3.027v-.946H5.297v.946a.568.568 0 1 1-1.135 0v-.946h-.946a.946.946 0 0 0-.946.946v2.08h9.46v-2.08a.946.946 0 0 0-.946-.946h-.946v.946a.568.568 0 1 1-1.135 0M2.27 11.919V6.81h9.46v5.108a.946.946 0 0 1-.946.946H3.216a.946.946 0 0 1-.946-.946m3.216-2.422a.568.568 0 0 0 0 1.136h3.028a.568.568 0 0 0 0-1.136z" clip-rule="evenodd"/></svg>
